<?xml version="1.0" encoding="UTF-8"?>
<map version="1.2" tiledversion="1.3.0" orientation="orthogonal" renderorder="right-down" compressionlevel="0" width="70" height="40" tilewidth="32" tileheight="32" infinite="0" nextlayerid="5" nextobjectid="6">
 <tileset firstgid="1" source="castle.tsj"/>
 <tileset firstgid="579" source="desert.tsj"/>
 <tileset firstgid="993" source="dungeon.tsj"/>
 <tileset firstgid="2472" source="house.tsj"/>
 <tileset firstgid="5094" source="inside.tsj"/>
 <tileset firstgid="6774" source="outside.tsj"/>
 <tileset firstgid="8022" source="terrain.tsj"/>
 <tileset firstgid="9972" source="water.tsj"/>
 <tileset firstgid="12777" source="beach.tsj"/>
 <tileset firstgid="13713" source="dark_dimension.tsj"/>
 <tileset firstgid="14322" source="farm_fort.tsj"/>
 <tileset firstgid="16454" source="inside2.tsj"/>
 <tileset firstgid="17079" source="inside3.tsj"/>
 <tileset firstgid="17655" source="outside2.tsj"/>
 <tileset firstgid="18231" source="outside3.tsj"/>
 <tileset firstgid="18856" source="outside4.tsj"/>
 <tileset firstgid="19720" source="ruindungeons_sheet_full.tsj"/>
 <tileset firstgid="22268" source="ship_tileset.tsj"/>
 <tileset firstgid="23780" source="z_tile_marker.tsj"/>
 <tileset firstgid="23812" source="underwater.tsj"/>
 <tileset firstgid="25002" source="giant_tree.tsj"/>
 <tileset firstgid="26226" source="eastern.tsj"/>
 <tileset firstgid="29642" source="sewer.tsj"/>
 <tileset firstgid="30650" source="winter1.tsj"/>
 <tileset firstgid="31530" source="winter2.tsj"/>
 <tileset firstgid="31786" source="winter3.tsj"/>
 <tileset firstgid="32042" source="winter4.tsj"/>
 <tileset firstgid="32724" source="beach2.tsj"/>
 <tileset firstgid="33192" source="steampunk.tsj"/>
 <tileset firstgid="37962" source="fairy_forest.tsj"/>
 <layer id="1" name="Tile Layer 1" width="70" height="40">
  <data encoding="csv">
1525,1525,1525,1525,1525,1525,1525,1525,1525,1525,1525,1525,1525,1525,1525,1525,1525,1525,1525,1525,1525,1525,1525,1525,1525,1525,1525,1525,1525,1525,1525,1525,1525,1525,1525,1525,1525,1525,1525,1525,1525,1525,1525,1525,1525,1525,1525,1525,1525,1525,1525,1525,1525,1525,1525,1525,1525,1525,1525,1525,1525,1525,1525,1525,1525,1525,1525,1525,1525,1525,
1525,1525,1525,1525,1525,1525,1525,1525,1525,1525,1525,1525,1525,1525,1525,1525,1525,1525,1525,1525,1525,1525,1525,1525,1525,1525,1525,1525,1525,1525,1525,1525,1525,1525,1525,1525,1525,1525,1525,1525,1525,1525,1525,1525,1525,1525,1525,1525,1525,1525,1525,1525,1525,1525,1525,1525,1525,1525,1525,1525,1525,1525,1525,1525,1525,1525,1525,1525,1525,1525,
1525,1525,1525,1525,1525,1525,1525,1525,1525,1525,1525,1525,1525,1525,1525,1525,1525,1525,1525,1525,1525,1525,1525,1525,1525,1525,1525,1525,1525,1525,1525,1525,1525,1525,1525,1525,1525,1525,1525,1525,1525,1525,1525,1525,1525,1525,1525,1525,1525,1525,1525,1525,1525,1525,1525,1525,1525,1525,1525,1525,1525,1525,1525,1525,1525,1525,1525,1525,1525,1525,
1525,1525,1525,1525,1525,1525,1525,1525,1525,1525,1525,1525,1525,1525,1525,1525,1525,1525,1525,1525,1525,1525,1525,1525,1525,1525,1525,1525,1525,1525,1525,1525,1525,1525,1525,1525,1525,1525,1525,1525,1525,1525,1525,1525,1525,1525,1525,1525,1525,1525,1525,1525,1525,1525,1525,1525,1525,1525,1525,1525,1525,1525,1525,1525,1525,1525,1525,1525,1525,1525,
1525,1525,1525,1525,1525,1525,1525,1525,1525,1525,1525,1525,1525,1525,1525,1525,1525,1525,1525,1525,1525,1525,1525,1525,1525,1525,1525,1525,1525,1525,1525,1525,1525,1525,1525,1525,1525,1525,1525,1525,1525,1525,1525,1525,1525,1525,1525,1525,1525,1525,1525,1525,1525,1525,1525,1525,1525,1525,1525,1525,1525,1525,1525,1525,1525,1525,1525,1525,1525,1525,
1525,1525,1525,1525,1525,1525,1525,1525,1525,1525,1525,1525,1525,1525,1525,1525,1525,1525,1525,1525,1525,1525,1525,1525,1525,1525,1525,1525,1525,1525,1525,1525,1525,1525,1525,1525,1525,1525,1525,1525,1525,1525,1525,1525,1525,1525,1525,1525,1579,1576,1576,1576,1576,1576,1576,1578,1525,1525,1525,1525,1525,1525,1525,1525,1525,1525,1525,1525,1525,1525,
1525,1525,1525,1525,1525,1525,1525,1525,1525,1525,1525,1525,1525,1525,1525,1525,1525,1525,1525,1525,1525,1525,1525,1525,1525,1525,1525,1525,1525,1525,1525,1525,1525,1525,1525,1525,1525,1525,1525,1525,1525,1525,1525,1525,1525,1579,1576,1576,1577,1050,1050,1050,1050,1050,1050,1575,1578,1525,1525,1525,1525,1525,1525,1525,1525,1525,1525,1525,1525,1525,
1525,1525,1525,1525,1525,1525,1525,1525,1525,1525,1525,1525,1525,1525,1525,1525,1525,1579,1576,1576,1578,1525,1525,1525,1525,1525,1525,1579,1576,1576,1576,1576,1576,1576,1578,1525,1525,1525,1525,1525,1525,1525,1525,1525,1579,1577,1050,1050,11707,11708,11708,11708,11708,11556,11657,1050,1575,1578,1525,1525,1525,1525,1525,1525,1525,1525,1525,1525,1525,1525,
1525,1525,1525,1525,1525,1525,1525,1525,1525,1525,1525,1525,1525,1525,1525,1579,1576,1577,1050,1050,1575,1576,1578,1525,1525,1525,1579,1577,1050,1050,1050,1050,1050,1050,1575,1576,1576,1576,1576,1576,1576,1576,1576,1576,1577,1050,1050,1050,11758,11759,11759,11606,11708,11708,11708,11556,1050,1575,1578,1525,1525,1525,1525,1525,1525,1525,1525,1525,1525,1525,
1525,1525,1525,1525,1525,1525,1525,1525,1525,1525,1525,1579,1576,1576,1576,1577,1050,1050,1050,1050,1050,1050,1575,1576,1576,1576,1577,1050,1050,1050,1050,1050,1050,1050,1050,1050,1050,1050,1050,1050,1050,1050,1050,1050,1050,1050,1050,1050,1050,1050,1050,11758,11759,11606,11708,11708,11708,11708,1524,1525,1525,1525,1525,1525,1525,1525,1525,1525,1525,1525,
1525,1525,1525,1525,1525,1525,1525,1525,1525,1525,1579,1577,1050,1050,1050,1050,1050,1050,1050,1050,1050,1050,1050,1050,1050,1050,1050,1050,1050,1050,1050,1050,1050,1050,1050,1050,1050,1050,1050,1050,1050,1050,1050,1050,1050,1050,1050,1050,1050,1050,1050,1050,1050,11758,11759,11759,11606,11708,1524,1525,1525,1525,1525,1525,1525,1525,1525,1525,1525,1525,
1525,1525,1525,1525,1525,1525,1525,1525,1525,1579,1577,1050,1050,1050,1050,1050,1050,1050,1050,1050,1050,1050,1050,1050,1050,1050,1050,1050,1050,1050,1050,1050,1050,1050,1050,1050,1050,1050,1050,1050,1050,1050,1050,1050,1050,1050,1050,1050,1050,1050,1050,1050,1050,1050,1050,1050,11758,11759,1527,1525,1525,1525,1525,1525,1525,1525,1525,1525,1525,1525,
1525,1525,1525,1525,1525,1525,1525,1525,1579,1577,1050,1050,1050,1050,1050,1050,1050,1050,1050,1050,1050,1050,1050,1050,1050,1050,1050,1050,1050,1050,1050,1050,1050,1050,1050,1050,1050,1050,1050,1050,1050,1050,1050,1050,1050,1050,1050,1050,1050,1050,1050,1050,1050,1050,1050,1050,1050,1524,1525,1525,1525,1525,1525,1525,1525,1525,1525,1525,1525,1525,
1525,1525,1525,1525,1525,1525,1525,1579,1577,1050,1050,1050,1050,1050,1050,1050,1050,1050,1050,1050,1050,1050,1050,1050,1050,1050,1050,1050,1050,1050,1050,1050,1050,1050,1050,1050,1050,1050,1050,1050,1050,1050,1050,1050,1050,1050,1050,1050,1050,1050,1050,1050,1050,1050,1050,1300,1300,1527,1525,1525,1525,1525,1525,1525,1525,1525,1525,1525,1525,1525,
1525,1525,1525,1525,1525,1525,1525,1526,1050,1050,1050,1050,1050,1050,1050,1050,1050,1050,1050,1050,1050,1050,1050,1050,1050,1050,1050,1050,1050,1050,1050,1050,1050,1050,1050,1050,1050,1050,1050,1050,1050,1050,1050,1050,1050,1050,1050,1050,1050,1050,1050,1050,1050,1050,1050,1300,1527,1525,1525,1525,1525,1525,1525,1525,1525,1525,1525,1525,1525,1525,
1525,1525,1525,1525,1525,1525,1579,1577,1050,1050,1050,1050,1050,1050,1050,1050,1300,1474,1474,1474,1474,1474,1300,1050,1050,1050,1050,1050,1050,1050,1050,1050,1050,1050,1050,1050,1050,1050,1050,1050,1050,1050,1050,1050,1050,1050,1050,1050,1050,1050,1050,1050,1050,1050,1300,1527,1525,1525,1525,1525,1525,1525,1525,1525,1525,1525,1525,1525,1525,1525,
1525,1525,1525,1525,1525,1525,1526,1050,1050,1050,1050,1050,1050,1050,1050,1050,1524,1525,1525,1525,1525,1525,1528,1300,1050,1050,1050,1050,1050,1050,1050,1050,1050,1050,1050,1050,1050,1050,1050,1050,1050,1050,1050,1050,1050,1050,1050,1050,1050,1050,1050,1050,1050,1300,1527,1525,1525,1525,1525,1525,1525,1525,1525,1525,1525,1525,1525,1525,1525,1525,
1525,1525,1525,1525,1525,1525,1526,1050,1050,1050,1050,1050,1050,1300,1300,1474,1527,1525,1525,1525,1525,1525,1525,1526,1050,1050,1050,1050,1050,1050,1050,1050,1050,1050,1050,1050,1050,1050,1050,1050,1050,1050,1050,1050,1050,1050,1050,1050,1050,1050,1050,1050,1300,1527,1525,1525,1525,1525,1525,1525,1525,1525,1525,1525,1525,1525,1525,1525,1525,1525,
1525,1525,1525,1525,1525,1525,1526,1050,1050,1050,1050,1050,1050,1050,1524,1525,1525,1525,1525,1525,1525,1525,1525,1528,1300,1050,1050,1050,1050,1050,1050,1050,1050,1050,1050,1050,1050,1050,1050,1050,1050,1050,1050,1050,1050,1050,1050,1050,1050,1050,1050,1050,1524,1525,1525,1525,1525,1525,1525,1525,1525,1525,1525,1525,1525,1525,1525,1525,1525,1525,
1525,1525,1525,1525,1525,1525,1526,1050,1050,1050,1050,1050,1050,1050,1524,1525,1525,1525,1525,1525,1525,1525,1525,1525,1526,1050,1050,1050,1050,1050,1050,1050,1050,1050,1050,1050,1050,1050,1050,1050,1050,1050,1050,1050,1050,1050,1050,1050,1050,1050,1050,1050,1524,1525,1525,1525,1525,1525,1525,1525,1525,1525,1525,1525,1525,1525,1525,1525,1525,1525,
1525,1525,1525,1525,1525,1525,1526,1050,1050,1050,1050,1050,1050,1050,1524,1525,1525,1525,1525,1525,1525,1525,1525,1525,1528,1474,1474,1300,1050,1050,1050,1050,1050,1050,1050,1050,1050,1050,1050,1050,1050,1050,1050,1050,1050,1050,1050,1050,1050,1050,1050,1050,1524,1525,1525,1525,1525,1525,1525,1525,1525,1525,1525,1525,1525,1525,1525,1525,1525,1525,
1525,1525,1525,1525,1525,1525,1526,1050,1050,1050,1050,1050,1050,1050,1524,1525,1525,1525,1525,1525,1525,1525,1525,1525,1525,1525,1525,1528,1300,1050,1050,1050,1050,1050,1050,1050,1050,1050,1050,1050,1050,1050,1050,1050,1050,1050,1050,1050,1050,1050,1050,1050,1524,1525,1525,1525,1525,1525,1525,1525,1525,1525,1525,1525,1525,1525,1525,1525,1525,1525,
1525,1525,1525,1525,1525,1525,1526,1050,1050,1050,1050,1050,1050,1050,1524,1525,1525,1525,1525,1525,1525,1525,1525,1525,1525,1525,1525,1525,1526,1050,1050,1050,1050,1050,1050,1050,1050,1050,1050,1050,1050,1050,1050,1050,1050,1050,1050,1050,1050,1050,1050,1050,1524,1525,1525,1525,1525,1525,1525,1525,1525,1525,1525,1525,1525,1525,1525,1525,1525,1525,
1525,1525,1525,1525,1525,1525,1528,1300,1050,1050,1050,1050,1050,1050,1524,1525,1525,1525,1525,1525,1525,1525,1525,1525,1525,1525,1525,1525,1526,1050,1050,1050,1050,1050,1050,1050,1050,1050,1050,1050,1050,1050,1050,1050,1050,1050,1050,1050,1050,1050,1050,1050,1524,1525,1525,1525,1525,1525,1525,1525,1525,1525,1525,1525,1525,1525,1525,1525,1525,1525,
1525,1525,1525,1525,1525,1525,1525,1528,1300,1050,1050,1050,1050,1050,1575,1578,1525,1525,1525,1525,1525,1525,1525,1525,1525,1525,1525,1525,1526,1050,1050,1050,1050,1050,1050,1050,1050,1050,1050,1050,1050,1050,1050,1050,1050,1050,1050,1050,1050,1050,1050,1050,1524,1525,1525,1525,1525,1525,1525,1525,1525,1525,1525,1525,1525,1525,1525,1525,1525,1525,
1525,1525,1525,1525,1525,1525,1525,1525,1526,1050,1050,1050,1050,1050,1050,1524,1525,1525,1525,1525,1525,1525,1525,1525,1525,1525,1525,1525,1526,1050,1050,1050,1050,1050,1050,1050,1050,1050,1050,1050,1050,1050,1050,1050,1050,1050,1050,1050,1050,1050,1050,1050,1524,1525,1525,1525,1525,1525,1525,1525,1525,1525,1525,1525,1525,1525,1525,1525,1525,1525,
1525,1525,1525,1525,1525,1525,1525,1525,1526,1050,1050,1050,1050,1050,1050,1524,1525,1525,1525,1525,1525,1525,1525,1525,1525,1525,1525,1525,1526,1050,1050,1050,1050,1050,1050,1050,1050,1050,1050,1050,1050,1050,1050,1050,1050,1050,1050,1050,1050,1050,1050,1050,1524,1525,1525,1525,1525,1525,1525,1525,1525,1525,1525,1525,1525,1525,1525,1525,1525,1525,
1525,1525,1525,1525,1525,1525,1525,1525,1526,1050,1050,1050,1050,1050,1050,1524,1525,1525,1525,1525,1525,1525,1525,1525,1525,1525,1525,1579,1577,1050,1050,1050,1050,1050,1050,1050,1050,1050,1050,1050,1050,1050,1050,1050,1050,1050,1050,1050,1050,1050,1050,1050,1524,1525,1525,1525,1525,1525,1525,1525,1525,1525,1525,1525,1525,1525,1525,1525,1525,1525,
1525,1525,1525,1525,1525,1525,1525,1525,1526,1050,1050,1050,1050,1050,1050,1524,1525,1525,1525,1525,1525,1525,1525,1525,1525,1525,1525,1526,1050,1050,1050,1050,1050,1050,1050,1050,1050,1050,1050,1050,1050,1050,1050,1050,1050,1050,1050,1050,1050,1050,1050,1050,1524,1525,1525,1525,1525,1525,1525,1525,1525,1525,1525,1525,1525,1525,1525,1525,1525,1525,
1525,1525,1525,1525,1525,1525,1525,1525,1526,1050,1050,1050,1050,1050,1300,1527,1525,1525,1525,1525,1525,1525,1525,1525,1525,1525,1525,1526,1050,1050,1050,1050,1050,1050,1050,1050,1050,1050,1050,1050,1050,1050,1050,1050,1050,1050,1050,1050,1050,1050,1050,1050,1575,1578,1525,1525,1525,1525,1525,1525,1525,1525,1525,1525,1525,1525,1525,1525,1525,1525,
1525,1525,1525,1525,1525,1525,1525,1525,1526,1050,1050,1050,1050,1050,1524,1525,1525,1525,1525,1525,1525,1525,1525,1525,1525,1525,1525,1526,1050,1050,1050,1050,1050,1050,1050,1050,1050,1050,1050,1050,1050,1050,1050,1050,1050,1050,1050,1050,1050,1050,1050,1050,1050,1524,1525,1525,1525,1525,1525,1525,1525,1525,1525,1525,1525,1525,1525,1525,1525,1525,
1525,1525,1525,1525,1525,1525,1525,1525,1528,1300,1050,1050,1050,1050,1524,1525,1525,1525,1525,1525,1525,1525,1525,1525,1525,1525,1525,1526,1050,1050,1050,1050,1050,1050,1050,1050,1050,1050,1050,1050,1050,1050,1050,1050,1050,1050,1050,1050,1050,1050,1050,1050,1050,1524,1525,1525,1525,1525,1525,1525,1525,1525,1525,1525,1525,1525,1525,1525,1525,1525,
1525,1525,1525,1525,1525,1525,1525,1525,1525,1528,1474,1474,1474,1474,1527,1525,1525,1525,1525,1525,1525,1525,1525,1525,1525,1525,1525,1526,1050,1050,1050,1300,1474,1474,1474,1474,1474,1474,1474,1474,1474,1300,1050,1050,1050,1050,1050,1050,1050,1050,1050,1050,1050,1524,1525,1525,1525,1525,1525,1525,1525,1525,1525,1525,1525,1525,1525,1525,1525,1525,
1525,1525,1525,1525,1525,1525,1525,1525,1525,1525,1525,1525,1525,1525,1525,1525,1525,1525,1525,1525,1525,1525,1525,1525,1525,1525,1525,1528,1474,1474,1474,1527,1525,1525,1525,1525,1525,1525,1525,1525,1525,1528,1300,1050,1050,1050,1050,1050,1050,1050,1050,1050,1300,1527,1525,1525,1525,1525,1525,1525,1525,1525,1525,1525,1525,1525,1525,1525,1525,1525,
1525,1525,1525,1525,1525,1525,1525,1525,1525,1525,1525,1525,1525,1525,1525,1525,1525,1525,1525,1525,1525,1525,1525,1525,1525,1525,1525,1525,1525,1525,1525,1525,1525,1525,1525,1525,1525,1525,1525,1525,1525,1525,1528,1474,1300,1050,1050,1300,1474,1474,1474,1474,1527,1525,1525,1525,1525,1525,1525,1525,1525,1525,1525,1525,1525,1525,1525,1525,1525,1525,
1525,1525,1525,1525,1525,1525,1525,1525,1525,1525,1525,1525,1525,1525,1525,1525,1525,1525,1525,1525,1525,1525,1525,1525,1525,1525,1525,1525,1525,1525,1525,1525,1525,1525,1525,1525,1525,1525,1525,1525,1525,1525,1525,1525,1528,1474,1474,1527,1525,1525,1525,1525,1525,1525,1525,1525,1525,1525,1525,1525,1525,1525,1525,1525,1525,1525,1525,1525,1525,1525,
1525,1525,1525,1525,1525,1525,1525,1525,1525,1525,1525,1525,1525,1525,1525,1525,1525,1525,1525,1525,1525,1525,1525,1525,1525,1525,1525,1525,1525,1525,1525,1525,1525,1525,1525,1525,1525,1525,1525,1525,1525,1525,1525,1525,1525,1525,1525,1525,1525,1525,1525,1525,1525,1525,1525,1525,1525,1525,1525,1525,1525,1525,1525,1525,1525,1525,1525,1525,1525,1525,
1525,1525,1525,1525,1525,1525,1525,1525,1525,1525,1525,1525,1525,1525,1525,1525,1525,1525,1525,1525,1525,1525,1525,1525,1525,1525,1525,1525,1525,1525,1525,1525,1525,1525,1525,1525,1525,1525,1525,1525,1525,1525,1525,1525,1525,1525,1525,1525,1525,1525,1525,1525,1525,1525,1525,1525,1525,1525,1525,1525,1525,1525,1525,1525,1525,1525,1525,1525,1525,1525,
1525,1525,1525,1525,1525,1525,1525,1525,1525,1525,1525,1525,1525,1525,1525,1525,1525,1525,1525,1525,1525,1525,1525,1525,1525,1525,1525,1525,1525,1525,1525,1525,1525,1525,1525,1525,1525,1525,1525,1525,1525,1525,1525,1525,1525,1525,1525,1525,1525,1525,1525,1525,1525,1525,1525,1525,1525,1525,1525,1525,1525,1525,1525,1525,1525,1525,1525,1525,1525,1525,
1525,1525,1525,1525,1525,1525,1525,1525,1525,1525,1525,1525,1525,1525,1525,1525,1525,1525,1525,1525,1525,1525,1525,1525,1525,1525,1525,1525,1525,1525,1525,1525,1525,1525,1525,1525,1525,1525,1525,1525,1525,1525,1525,1525,1525,1525,1525,1525,1525,1525,1525,1525,1525,1525,1525,1525,1525,1525,1525,1525,1525,1525,1525,1525,1525,1525,1525,1525,1525,1525
</data>
 </layer>
 <layer id="3" name="Tile Layer 2" width="70" height="40">
  <data encoding="csv">
0,0,0,0,0,0,0,0,0,0,0,0,0,0,0,0,0,0,0,0,0,0,0,0,0,0,0,0,0,0,0,0,0,0,0,0,0,0,0,0,0,0,0,0,0,0,0,0,0,0,0,0,0,0,0,0,0,0,0,0,0,0,0,0,0,0,0,0,0,0,
0,0,0,0,0,0,0,0,0,0,0,0,0,0,0,0,0,0,0,0,0,0,0,0,0,0,0,0,0,0,0,0,0,0,0,0,0,0,0,0,0,0,0,0,0,0,0,0,0,0,0,0,0,0,0,0,0,0,0,0,0,0,0,0,0,0,0,0,0,0,
0,0,0,0,0,0,0,0,0,0,0,0,0,0,0,0,0,0,0,0,0,0,0,0,0,0,0,0,0,0,0,0,0,0,0,0,0,0,0,0,0,0,0,0,0,0,0,0,0,0,0,0,0,0,0,0,0,0,0,0,0,0,0,0,0,0,0,0,0,0,
0,0,0,0,0,0,0,0,0,0,0,0,0,0,0,0,0,0,0,0,0,0,0,0,0,0,0,0,0,0,0,0,0,0,0,0,0,0,0,0,0,0,0,0,0,0,0,0,0,0,0,0,0,0,0,0,0,0,0,0,0,0,0,0,0,0,0,0,0,0,
0,0,0,0,0,0,0,0,0,0,0,0,0,0,0,0,0,0,0,0,0,0,0,0,0,0,0,0,0,0,0,0,0,0,0,0,0,0,0,0,0,0,0,0,0,0,0,0,0,0,0,0,0,0,0,0,0,0,0,0,0,0,0,0,0,0,0,0,0,0,
0,0,0,0,0,0,0,0,0,0,0,0,0,0,0,0,0,0,0,0,0,0,0,0,0,0,0,0,0,0,0,0,0,0,0,0,0,0,0,0,0,0,0,0,0,0,0,0,0,0,0,0,0,0,0,0,0,0,0,0,0,0,0,0,0,0,0,0,0,0,
0,0,0,0,0,0,0,0,0,0,0,0,0,0,0,0,0,0,0,0,0,0,0,0,0,0,0,0,0,0,0,0,0,0,0,0,0,0,0,0,0,0,0,0,0,0,0,0,0,1675,1675,1675,1675,1675,1675,0,0,0,0,0,0,0,0,0,0,0,0,0,0,0,
0,0,0,0,0,0,0,0,0,0,0,0,0,0,0,0,0,0,0,0,0,0,0,0,0,0,0,0,0,0,0,0,0,0,0,0,0,0,0,0,0,0,0,0,0,0,1675,1675,1676,1726,1726,1726,1726,1726,1726,1674,0,0,0,0,0,0,0,0,0,0,0,0,0,0,
0,0,0,0,0,0,0,0,0,0,0,0,0,0,0,0,0,0,1675,1675,0,0,0,0,0,0,0,0,1675,1675,1675,1675,1675,1675,0,0,0,0,0,0,0,0,0,0,0,1676,1726,1726,1727,0,0,0,0,0,0,1725,1674,0,0,0,0,0,0,0,0,0,0,0,0,0,
0,0,0,0,0,0,0,0,0,0,0,0,0,0,0,0,1675,1676,1726,1726,1674,1675,0,0,0,0,0,1676,1726,1726,1726,1726,1726,1726,1674,1675,1675,1675,1675,1675,1675,1675,1675,1675,1676,1727,0,0,0,14483,0,0,0,0,0,0,1725,1674,0,0,0,0,0,0,0,0,0,0,0,0,
0,0,0,0,0,0,0,0,0,0,0,0,1675,1675,1675,1676,1726,1727,0,0,1725,1726,1674,1675,1675,1675,1676,1727,0,0,0,14484,0,0,1725,1726,1726,1726,1726,1726,1726,1726,1726,1726,1727,14484,0,18162,0,0,0,0,18188,0,0,0,0,1725,0,0,0,0,0,0,0,0,0,0,0,0,
0,0,0,0,0,0,0,0,0,0,0,1676,1726,1726,1726,1727,0,0,0,0,0,0,1725,1726,1726,1726,1727,0,0,0,0,0,0,0,0,0,0,0,0,0,0,0,0,0,0,0,0,0,0,0,0,0,18212,0,18139,18140,0,1473,0,0,0,0,0,0,0,0,0,0,0,0,
0,0,0,0,0,0,0,0,0,0,1676,1727,0,0,0,0,0,0,0,17326,0,0,0,0,14524,0,0,0,0,0,0,0,18138,0,0,0,0,0,0,0,0,0,0,0,0,0,0,0,0,0,0,0,0,0,18163,18164,0,0,0,0,0,0,0,0,0,0,0,0,0,0,
0,0,0,0,0,0,0,0,0,1676,1727,0,0,0,0,0,0,0,0,0,0,0,0,0,0,0,0,0,0,0,0,0,0,0,0,0,0,0,0,0,0,0,0,0,0,0,0,0,0,0,0,0,0,0,0,0,1473,0,0,0,0,0,0,0,0,0,0,0,0,0,
0,0,0,0,0,0,0,0,1676,1727,0,0,0,0,0,0,0,0,0,0,0,0,0,0,0,0,0,0,0,0,0,0,0,0,0,0,0,0,0,0,0,0,0,0,0,0,0,0,0,0,0,0,0,0,0,1473,0,0,0,0,0,0,0,0,0,0,0,0,0,0,
0,0,0,0,0,0,0,0,1727,0,0,0,0,0,18162,0,1473,0,0,0,0,0,1475,0,0,0,0,0,0,0,0,0,0,0,0,0,0,0,0,0,0,0,0,0,0,0,0,0,0,0,0,0,0,0,1473,0,0,0,0,0,0,0,0,0,0,0,0,0,0,0,
0,0,0,0,0,0,0,1676,0,0,0,0,0,0,0,0,0,0,0,0,0,0,0,1475,0,0,0,0,0,0,0,0,0,0,0,0,0,0,0,0,0,0,0,0,0,0,0,0,0,0,0,0,0,1473,0,0,0,0,0,0,0,0,0,0,0,0,0,0,0,0,
0,0,0,0,0,0,0,1727,0,0,0,0,0,0,1473,0,0,0,0,0,0,0,0,0,0,0,0,0,0,0,0,0,0,0,0,0,0,0,0,0,0,0,0,0,0,0,0,0,0,0,0,0,1473,0,0,0,0,0,0,0,0,0,0,0,0,0,0,0,0,0,
0,0,0,0,0,0,0,18139,18140,0,0,0,0,0,0,0,0,0,0,0,0,0,0,0,1475,0,0,0,0,0,0,0,0,0,17326,0,0,0,0,0,0,18188,14525,0,0,0,0,0,0,0,0,0,0,0,0,0,0,0,0,0,0,0,0,0,0,0,0,0,0,0,
0,0,0,0,0,0,0,18163,18164,0,0,0,0,14525,0,0,0,0,0,0,0,0,0,0,0,0,0,0,0,0,0,0,0,0,0,0,0,0,0,0,0,18212,18187,0,0,0,0,0,0,0,14483,0,0,0,0,0,0,0,0,0,0,0,0,0,0,0,0,0,0,0,
0,0,0,0,0,0,0,0,0,0,0,0,0,0,0,0,0,0,0,0,0,0,0,0,0,0,0,1475,0,0,0,0,0,0,0,0,0,0,0,0,0,0,0,0,0,0,0,0,0,0,0,0,0,0,0,0,0,0,0,0,0,0,0,0,0,0,0,0,0,0,
0,0,0,0,0,0,0,0,0,0,0,0,0,0,0,0,0,0,0,0,0,0,0,0,0,0,0,0,1475,0,0,18211,0,0,0,0,0,0,0,0,0,0,0,0,0,0,0,0,0,0,0,0,0,0,0,0,0,0,0,0,0,0,0,0,0,0,0,0,0,0,
0,0,0,0,0,0,0,0,0,0,0,0,0,0,0,0,0,0,0,0,0,0,0,0,0,0,0,0,0,0,14483,0,0,0,0,0,0,0,0,0,0,0,0,0,0,0,0,0,0,0,0,0,0,0,0,0,0,0,0,0,0,0,0,0,0,0,0,0,0,0,
0,0,0,0,0,0,0,1475,0,0,0,0,0,0,0,0,0,0,0,0,0,0,0,0,0,0,0,0,0,0,0,0,0,0,0,0,0,0,0,0,0,0,0,0,0,0,0,0,0,18162,0,0,0,0,0,0,0,0,0,0,0,0,0,0,0,0,0,0,0,0,
0,0,0,0,0,0,0,0,1475,0,0,0,17326,0,0,0,0,0,0,0,0,0,0,0,0,0,0,0,0,0,0,0,0,0,0,0,0,0,0,0,0,0,0,0,0,0,0,0,0,0,18211,0,0,0,0,0,0,0,0,0,0,0,0,0,0,0,0,0,0,0,
0,0,0,0,0,0,0,0,0,0,0,0,0,0,1674,0,0,0,0,0,0,0,0,0,0,0,0,0,0,0,0,0,0,0,0,0,0,0,0,0,0,0,0,0,0,0,0,0,0,0,0,0,0,0,0,0,0,0,0,0,0,0,0,0,0,0,0,0,0,0,
0,0,0,0,0,0,0,0,0,14483,0,0,0,0,1725,0,0,0,0,0,0,0,0,0,0,0,0,0,0,0,0,0,0,0,0,0,0,0,0,0,0,0,0,0,0,0,0,0,0,0,0,0,0,0,0,0,0,0,0,0,0,0,0,0,0,0,0,0,0,0,
0,0,0,0,0,0,0,0,0,0,0,0,0,18189,18190,0,0,0,0,0,0,0,0,0,0,0,0,0,0,0,0,0,0,0,0,0,0,0,0,0,0,0,0,0,0,0,0,0,0,0,0,0,0,0,0,0,0,0,0,0,0,0,0,0,0,0,0,0,0,0,
0,0,0,0,0,0,0,0,0,0,0,0,0,18213,18214,0,0,0,0,0,0,0,0,0,0,0,0,0,1676,0,0,0,0,0,0,0,18189,18190,0,0,0,0,0,0,0,0,0,0,0,0,0,0,0,0,0,0,0,0,0,0,0,0,0,0,0,0,0,0,0,0,
0,0,0,0,0,0,0,0,0,0,0,0,0,0,1473,0,0,0,0,0,0,0,0,0,0,0,0,0,1727,0,0,0,0,0,0,0,18213,18214,0,0,0,0,0,0,0,0,0,0,0,0,0,0,0,0,0,0,0,0,0,0,0,0,0,0,0,0,0,0,0,0,
0,0,0,0,0,0,0,0,0,0,0,0,0,0,0,0,0,0,0,0,0,0,0,0,0,0,0,0,0,0,14484,0,0,0,0,0,0,0,0,0,0,0,0,0,0,0,0,0,0,0,0,0,1674,0,0,0,0,0,0,0,0,0,0,0,0,0,0,0,0,0,
0,0,0,0,0,0,0,0,0,1475,0,0,0,0,0,0,0,0,0,0,0,0,0,0,0,0,0,0,0,0,0,0,0,0,0,0,0,0,0,0,0,0,0,0,0,0,0,0,0,0,0,0,1725,0,0,0,0,0,0,0,0,0,0,0,0,0,0,0,0,0,
0,0,0,0,0,0,0,0,0,0,0,0,0,0,0,0,0,0,0,0,0,0,0,0,0,0,0,0,0,0,0,1473,0,0,0,0,0,0,0,0,0,1475,0,0,0,0,0,18138,0,0,0,0,0,0,0,0,0,0,0,0,0,0,0,0,0,0,0,0,0,0,
0,0,0,0,0,0,0,0,0,0,0,0,0,0,0,0,0,0,0,0,0,0,0,0,0,0,0,0,0,0,0,0,0,0,0,0,0,0,0,0,0,0,1475,0,0,0,0,0,0,0,0,0,1473,0,0,0,0,0,0,0,0,0,0,0,0,0,0,0,0,0,
0,0,0,0,0,0,0,0,0,0,0,0,0,0,0,0,0,0,0,0,0,0,0,0,0,0,0,0,0,0,0,0,0,0,0,0,0,0,0,0,0,0,0,0,1475,0,0,1473,0,0,0,0,0,0,0,0,0,0,0,0,0,0,0,0,0,0,0,0,0,0,
0,0,0,0,0,0,0,0,0,0,0,0,0,0,0,0,0,0,0,0,0,0,0,0,0,0,0,0,0,0,0,0,0,0,0,0,0,0,0,0,0,0,0,0,0,0,0,0,0,0,0,0,0,0,0,0,0,0,0,0,0,0,0,0,0,0,0,0,0,0,
0,0,0,0,0,0,0,0,0,0,0,0,0,0,0,0,0,0,0,0,0,0,0,0,0,0,0,0,0,0,0,0,0,0,0,0,0,0,0,0,0,0,0,0,0,0,0,0,0,0,0,0,0,0,0,0,0,0,0,0,0,0,0,0,0,0,0,0,0,0,
0,0,0,0,0,0,0,0,0,0,0,0,0,0,0,0,0,0,0,0,0,0,0,0,0,0,0,0,0,0,0,0,0,0,0,0,0,0,0,0,0,0,0,0,0,0,0,0,0,0,0,0,0,0,0,0,0,0,0,0,0,0,0,0,0,0,0,0,0,0,
0,0,0,0,0,0,0,0,0,0,0,0,0,0,0,0,0,0,0,0,0,0,0,0,0,0,0,0,0,0,0,0,0,0,0,0,0,0,0,0,0,0,0,0,0,0,0,0,0,0,0,0,0,0,0,0,0,0,0,0,0,0,0,0,0,0,0,0,0,0,
0,0,0,0,0,0,0,0,0,0,0,0,0,0,0,0,0,0,0,0,0,0,0,0,0,0,0,0,0,0,0,0,0,0,0,0,0,0,0,0,0,0,0,0,0,0,0,0,0,0,0,0,0,0,0,0,0,0,0,0,0,0,0,0,0,0,0,0,0,0
</data>
 </layer>
 <objectgroup id="4" name="Object Layer 1">
  <object id="2" name="Alpha Wolf" type="npc" x="1216" y="704" width="96" height="96">
   <properties>
    <property name="animation" value="whiteWolf"/>
    <property name="dropTable" value="shamrock_wolf.json"/>
    <property name="level" value="15"/>
    <property name="name" value="Alpha Wolf"/>
    <property name="npcClass" value="WhiteWolf"/>
   </properties>
  </object>
  <object id="3" name="White Wolf" type="npc" x="1504" y="384" width="64" height="64">
   <properties>
    <property name="animation" value="whiteWolf"/>
    <property name="dropTable" value="shamrock_wolf.json"/>
    <property name="level" value="13"/>
    <property name="name" value="White Wolf"/>
    <property name="npcClass" value="WhiteWolf"/>
   </properties>
  </object>
  <object id="4" name="White Wolf" type="npc" x="1472" y="896" width="64" height="64">
   <properties>
    <property name="animation" value="whiteWolf"/>
    <property name="dropTable" value="shamrock_wolf.json"/>
    <property name="level" value="13"/>
    <property name="name" value="White Wolf"/>
    <property name="npcClass" value="WhiteWolf"/>
   </properties>
  </object>
  <object id="5" name="Shamrock Cliffs" type="zone_tile" x="320" y="1008" width="128" height="16">
   <properties>
    <property name="goToX" value="89"/>
    <property name="goToY" value="33"/>
    <property name="zone" value="ShamrockCliffs"/>
   </properties>
  </object>
 </objectgroup>
</map>
